;FLAVOR:Marlin
;TIME:3978
;Filament used: 7.86851m
;Layer height: 0.2
;MINX:-29.3
;MINY:-14.301
;MINZ:0.2
;MAXX:29.3
;MAXY:64.3
;MAXZ:23.3
;TARGET_MACHINE.NAME:Unknown
;Generated with Cura_SteamEngine 5.8.1
M82 ;absolute extrusion mode
G21 ; millimeter units
G90 ; absolute coordinates
M82 ; E absolute
M140 S40
M104 S220.0
M190 S40
M109 S220.0
G28 ; home axis
M420 S1 ; enable mesh leveling
; Lower nozzle and move to start position
G1 Z150
G1 X-130 Y0 Z0.4 F3000
; Extrude about 40 mm by printing a 90 degree arc
G3 X0 Y-130 I130 Z0.3 E40 F2700
; Retract and move nozzle up
G92 E0
G1 E-1.5 F1800
G0 Z0.5
G1 E0 F300

G92 E0
G92 E0
G1 F4200 E-4
;LAYER_COUNT:115
;LAYER:0
M107
M204 S5000
M205 X20 Y20
G1 F3000 Z0.5
;MESH:Ga Canh Tya.STL
G0 X10.076 Y-.928 Z0.5
M204 S3000
;TYPE:WALL-INNER
G1 F3000 Z0.2
G1 F4200 E0.04158
G1 F3000 X20.819 Y-.928 E0.55968
G1 X21.009 Y-1.158 E0.57407
G1 X21.427 Y-1.435 E0.59825
G1 X21.943 Y-1.574 E0.62402
G1 X26.453 Y-1.576 E0.84153
G1 X26.839 Y-1.609 E0.86021
G1 X27.147 Y-1.692 E0.8756
G1 X27.456 Y-1.837 E0.89206
G1 X27.727 Y-2.028 E0.90805
G1 X27.965 Y-2.264 E0.92421
G1 X28.158 Y-2.542 E0.94053
G1 X28.305 Y-2.854 E0.95717
G1 X28.387 Y-3.162 E0.97254
G1 X28.424 Y-3.55 E0.99133
G1 X28.423 Y-6.377 E1.12767
G1 F2454 X28.334 Y-6.872 E1.15732
G1 F2127.7 X28.348 Y-7.501 E1.20011
G1 F2142.9 X28.337 Y-8.015 E1.23482
G1 F2474.2 X28.422 Y-8.619 E1.27049
G1 F3000 X28.42 Y-11.46 E1.4075
G1 X28.387 Y-11.838 E1.4258
G1 X28.304 Y-12.147 E1.44123
G1 X28.16 Y-12.456 E1.45767
G1 X27.967 Y-12.73 E1.47383
G1 X27.73 Y-12.967 E1.49
G1 X27.456 Y-13.159 E1.50613
G1 X27.147 Y-13.304 E1.5226
G1 X26.835 Y-13.388 E1.53818
G1 X26.449 Y-13.424 E1.55687
G1 X-26.456 Y-13.42 E4.10833
G1 X-26.794 Y-13.392 E4.12469
G1 X-27.377 Y-13.205 E4.15422
G1 X-27.627 Y-13.05 E4.1684
G1 X-28.05 Y-12.627 E4.19725
G1 X-28.207 Y-12.374 E4.21161
G1 X-28.424 Y-11.704 E4.24558
G1 X-28.423 Y-8.619 E4.39436
G1 F2474.2 X-28.337 Y-8.015 E4.43004
G1 F2142.9 X-28.348 Y-7.499 E4.46488
G1 F2127.7 X-28.333 Y-6.87 E4.50767
G1 F2454 X-28.421 Y-6.377 E4.53719
G1 F3000 X-28.42 Y-3.54 E4.67401
G1 X-28.387 Y-3.159 E4.69246
G1 X-28.305 Y-2.854 E4.70769
G1 X-28.158 Y-2.542 E4.72432
G1 X-27.965 Y-2.264 E4.74064
G1 X-27.727 Y-2.028 E4.75681
G1 X-27.455 Y-1.837 E4.77284
G1 X-27.147 Y-1.692 E4.78925
G1 X-26.839 Y-1.61 E4.80463
G1 X-26.453 Y-1.576 E4.82331
G1 X-21.943 Y-1.574 E5.04082
G1 X-21.638 Y-1.503 E5.05592
G1 X-21.169 Y-1.288 E5.0808
G1 X-20.798 Y-.928 E5.10573
G1 X-10.076 Y-.928 E5.62283
G1 X-10.073 Y-3.585 E5.75097
G1 X-10.017 Y-4.211 E5.78128
G1 X-9.834 Y-4.885 E5.81496
G1 X-9.534 Y-5.539 E5.84966
G1 X-9.125 Y-6.123 E5.88404
G1 X-8.623 Y-6.625 E5.91828
G1 X-8.037 Y-7.035 E5.95277
G1 X-7.398 Y-7.333 E5.98678
G1 X-6.711 Y-7.521 E6.02113
G1 X-6.078 Y-7.573 E6.05176
G1 X6.085 Y-7.573 E6.63835
G1 X6.714 Y-7.516 E6.6688
G1 X7.394 Y-7.335 E6.70274
G1 X8.037 Y-7.035 E6.73696
G1 X8.623 Y-6.625 E6.77145
G1 X9.125 Y-6.123 E6.80569
G1 X9.532 Y-5.541 E6.83994
G1 X9.82 Y-4.923 E6.87282
G1 X10.021 Y-4.215 E6.90832
G1 X10.073 Y-3.578 E6.93914
G1 X10.076 Y-.928 E7.06694
M204 S5000
G0 X9.676 Y-.528
M204 S3000
G1 X21.008 Y-.529 E7.61345
G1 X21.237 Y-.829 E7.63165
G1 X21.67 Y-1.103 E7.65637
G1 X21.972 Y-1.175 E7.67134
G1 X26.47 Y-1.176 E7.88826
G1 X26.908 Y-1.214 E7.90947
G1 X27.285 Y-1.314 E7.92828
G1 X27.657 Y-1.489 E7.9481
G1 X27.987 Y-1.721 E7.96756
G1 X28.273 Y-2.007 E7.98706
G1 X28.506 Y-2.341 E8.0067
G1 X28.682 Y-2.716 E8.02668
G1 X28.783 Y-3.091 E8.04541
G1 X28.824 Y-3.532 E8.06677
G1 X28.82 Y-11.477 E8.44994
G1 X28.782 Y-11.908 E8.4708
G1 X28.682 Y-12.285 E8.48961
G1 X28.507 Y-12.657 E8.50944
G1 X28.274 Y-12.988 E8.52896
G1 X27.988 Y-13.274 E8.54847
G1 X27.657 Y-13.507 E8.56799
G1 X27.285 Y-13.682 E8.58782
G1 X26.906 Y-13.783 E8.60673
G1 X26.468 Y-13.824 E8.62795
G1 X-26.472 Y-13.82 E11.1811
G1 X-26.857 Y-13.789 E11.19972
G1 X-27.215 Y-13.703 E11.21748
G1 X-27.559 Y-13.563 E11.23539
G1 X-27.864 Y-13.374 E11.2527
G1 X-28.138 Y-13.138 E11.27014
G1 X-28.374 Y-12.864 E11.28758
G1 X-28.564 Y-12.557 E11.30499
G1 X-28.704 Y-12.22 E11.32259
G1 X-28.793 Y-11.852 E11.34085
G1 X-28.824 Y-11.472 E11.35923
G1 X-28.82 Y-3.522 E11.74264
G1 X-28.782 Y-3.089 E11.7636
G1 X-28.682 Y-2.716 E11.78223
G1 X-28.506 Y-2.341 E11.80221
G1 X-28.273 Y-2.007 E11.82185
G1 X-27.987 Y-1.721 E11.84135
G1 X-27.657 Y-1.49 E11.86078
G1 X-27.285 Y-1.314 E11.88063
G1 X-26.908 Y-1.214 E11.89944
G1 X-26.47 Y-1.176 E11.92064
G1 X-21.972 Y-1.175 E12.13756
G1 X-21.769 Y-1.124 E12.14766
G1 X-21.365 Y-.939 E12.16909
G1 X-21.166 Y-.757 E12.18209
G1 X-21.007 Y-.528 E12.19554
G1 X-9.676 Y-.528 E12.742
G1 X-9.674 Y-3.55 E12.88774
G1 X-9.621 Y-4.141 E12.91636
G1 X-9.458 Y-4.75 E12.94677
G1 X-9.185 Y-5.339 E12.97807
G1 X-8.818 Y-5.864 E13.00897
G1 X-8.364 Y-6.318 E13.03993
G1 X-7.838 Y-6.686 E13.07089
G1 X-7.255 Y-6.958 E13.10192
G1 X-6.637 Y-7.127 E13.13281
G1 X-6.045 Y-7.175 E13.16146
G1 X6.05 Y-7.174 E13.74477
G1 X6.64 Y-7.122 E13.77333
G1 X7.256 Y-6.958 E13.80407
G1 X7.84 Y-6.684 E13.83518
G1 X8.364 Y-6.318 E13.86601
G1 X8.818 Y-5.864 E13.89697
G1 X9.187 Y-5.337 E13.928
G1 X9.459 Y-4.747 E13.95933
G1 X9.625 Y-4.144 E13.9895
G1 X9.675 Y-3.545 E14.01848
G1 X9.676 Y-.528 E14.16399
M204 S5000
G1 F4200 E10.16399
G1 F3000 Z0.5
G0 X27.761 Y-6.921 Z0.5
M204 S3000
G1 F3000 Z0.2
G1 F4200 E14.20556
G1 F2247.2 X27.366 Y-6.011 E14.26943
G1 F2702.7 X27.031 Y-5.499 E14.30219
G1 F3000 X26.636 Y-5.08 E14.32996
G1 X26.112 Y-4.703 E14.36109
G1 X25.509 Y-4.436 E14.39289
G1 X24.981 Y-4.312 E14.41905
G1 X24.5 Y-4.272 E14.44233
G1 X24.016 Y-4.311 E14.46574
G1 X23.487 Y-4.436 E14.49196
G1 X22.871 Y-4.71 E14.52447
G1 X22.413 Y-5.031 E14.55145
G1 X22.08 Y-5.36 E14.57402
G1 X21.749 Y-5.81 E14.60096
G1 X21.457 Y-6.398 E14.63262
G1 X21.312 Y-7.016 E14.66324
G1 X21.272 Y-7.489 E14.68613
G1 X21.312 Y-7.981 E14.70994
G1 X21.457 Y-8.599 E14.74055
G1 X21.749 Y-9.186 E14.77217
G1 X22.08 Y-9.636 E14.79911
G1 X22.36 Y-9.916 E14.81821
G1 X22.81 Y-10.247 E14.84515
G1 X23.317 Y-10.499 E14.87245
G1 X23.935 Y-10.673 E14.90342
G1 X24.499 Y-10.724 E14.93073
G1 X24.981 Y-10.684 E14.95405
G1 X25.509 Y-10.56 E14.98021
G1 X26.128 Y-10.284 E15.0129
G1 X26.498 Y-10.031 E15.03451
G1 X26.981 Y-9.574 E15.06658
G1 F2870.8 X27.413 Y-8.911 E15.10646
G1 F2631.6 X27.691 Y-8.15 E15.151
G1 F2298.9 X27.769 Y-7.989 E15.16226
G1 F2142.9 X27.799 Y-7.501 E15.19527
G1 F2127.7 X27.761 Y-6.921 E15.2348
M204 S5000
G1 F4200 E11.2348
G1 F3000 Z0.5
G0 X24.5 Y-4.672 Z0.5
M204 S3000
G1 F3000 Z0.2
G1 F4200 E15.27637
G1 F3000 X24.053 Y-4.71 E15.29801
G1 X23.486 Y-4.86 E15.3263
G1 X23.038 Y-5.078 E15.35032
G1 X22.699 Y-5.314 E15.37024
G1 X22.316 Y-5.696 E15.39633
G1 X22.078 Y-6.038 E15.41643
G1 X21.823 Y-6.588 E15.44566
G1 X21.71 Y-7.053 E15.46874
G1 X21.672 Y-7.469 E15.48889
G1 X21.71 Y-7.944 E15.51187
G1 X21.86 Y-8.51 E15.54011
G1 X22.078 Y-8.958 E15.56414
G1 X22.363 Y-9.353 E15.58763
G1 X22.726 Y-9.702 E15.61191
G1 X23.038 Y-9.918 E15.63021
G1 X23.588 Y-10.173 E15.65945
G1 X24.053 Y-10.286 E15.68253
G1 X24.499 Y-10.324 E15.70412
G1 X24.944 Y-10.286 E15.72565
G1 X25.408 Y-10.173 E15.74869
G1 X25.913 Y-9.946 E15.77539
G1 X26.27 Y-9.702 E15.79624
G1 X26.633 Y-9.353 E15.82053
G1 X26.918 Y-8.958 E15.84402
G1 X27.136 Y-8.51 E15.86805
G1 X27.269 Y-8.04 E15.8916
G1 X27.324 Y-7.501 E15.91773
G1 X27.279 Y-7.005 E15.94175
G1 X27.173 Y-6.588 E15.9625
G1 X26.968 Y-6.126 E15.98688
G1 X26.702 Y-5.726 E16.01004
G1 X26.353 Y-5.363 E16.03433
G1 X25.884 Y-5.034 E16.06196
G1 X25.408 Y-4.823 E16.08707
G1 X24.944 Y-4.71 E16.1101
G1 X24.5 Y-4.672 E16.13159
M204 S5000
G1 F4200 E12.13159
G1 F3000 Z0.5
G0 X-27.761 Y-6.919 Z0.5
M204 S3000
G1 F3000 Z0.2
G1 F4200 E16.17317
G1 F2120.1 X-27.795 Y-7.401 E16.20614
G1 F2135.2 X-27.769 Y-7.989 E16.24602
G1 F2298.9 X-27.692 Y-8.15 E16.25725
G1 F2631.6 X-27.414 Y-8.912 E16.30185
G1 F2870.8 X-27.031 Y-9.498 E16.33713
G1 F3000 X-26.636 Y-9.916 E16.36487
G1 X-26.112 Y-10.294 E16.39603
G1 X-25.509 Y-10.56 E16.42781
G1 X-24.981 Y-10.684 E16.45397
G1 X-24.501 Y-10.724 E16.4772
G1 X-24.016 Y-10.684 E16.50067
G1 X-23.398 Y-10.539 E16.53128
G1 X-22.81 Y-10.247 E16.56294
G1 X-22.36 Y-9.916 E16.58988
G1 X-22.08 Y-9.636 E16.60898
G1 X-21.749 Y-9.186 E16.63592
G1 X-21.457 Y-8.599 E16.66754
G1 X-21.312 Y-7.981 E16.69815
G1 X-21.272 Y-7.488 E16.72201
G1 X-21.312 Y-7.016 E16.74485
G1 X-21.457 Y-6.395 E16.77561
G1 X-21.749 Y-5.81 E16.80714
G1 X-22 Y-5.451 E16.82827
G1 X-22.423 Y-5.023 E16.85729
G1 X-22.871 Y-4.71 E16.88364
G1 X-23.317 Y-4.497 E16.90748
G1 X-23.935 Y-4.323 E16.93844
G1 X-24.5 Y-4.272 E16.9658
G1 X-24.981 Y-4.311 E16.98907
G1 X-25.509 Y-4.436 E17.01524
G1 X-26.129 Y-4.712 E17.04797
G1 X-26.498 Y-4.965 E17.06955
G1 X-26.916 Y-5.36 E17.09729
G1 X-27.247 Y-5.81 E17.12423
G1 X-27.499 Y-6.316 E17.15149
G1 F2454 X-27.761 Y-6.919 E17.19025
M204 S5000
G1 F4200 E13.19025
G1 F3000 Z0.5
G0 X-24.5 Y-4.672 Z0.5
M204 S3000
G1 F3000 Z0.2
G1 F4200 E17.23183
G1 F3000 X-24.944 Y-4.71 E17.25332
G1 X-25.408 Y-4.823 E17.27635
G1 X-25.898 Y-5.041 E17.30221
G1 X-26.27 Y-5.294 E17.32391
G1 X-26.633 Y-5.643 E17.34819
G1 X-26.918 Y-6.038 E17.37169
G1 X-27.173 Y-6.588 E17.40092
G1 X-27.286 Y-7.053 E17.424
G1 X-27.324 Y-7.499 E17.44559
G1 X-27.286 Y-7.944 E17.46713
G1 X-27.136 Y-8.51 E17.49537
G1 X-26.918 Y-8.958 E17.51939
G1 X-26.633 Y-9.353 E17.54288
G1 X-26.27 Y-9.702 E17.56717
G1 X-25.914 Y-9.946 E17.58798
G1 X-25.408 Y-10.173 E17.61473
G1 X-24.944 Y-10.286 E17.63776
G1 X-24.501 Y-10.324 E17.6592
G1 X-24.053 Y-10.286 E17.68089
G1 X-23.486 Y-10.136 E17.70917
G1 X-23.038 Y-9.918 E17.7332
G1 X-22.643 Y-9.633 E17.75669
G1 X-22.294 Y-9.27 E17.78098
G1 X-22.078 Y-8.958 E17.79928
G1 X-21.823 Y-8.408 E17.82852
G1 X-21.71 Y-7.944 E17.85155
G1 X-21.672 Y-7.469 E17.87453
G1 X-21.727 Y-6.956 E17.89941
G1 X-21.86 Y-6.486 E17.92297
G1 X-22.078 Y-6.038 E17.947
G1 X-22.332 Y-5.677 E17.96828
G1 X-22.643 Y-5.363 E17.9896
G1 X-23.075 Y-5.055 E18.01518
G1 X-23.588 Y-4.823 E18.04234
G1 X-24.053 Y-4.71 E18.06542
G1 X-24.5 Y-4.672 E18.08705
M204 S5000
G0 X-24.519 Y-5.072
M204 S3000
M205 X10 Y10
;TYPE:WALL-OUTER
G1 F1800 X-24.939 Y-5.114 E18.10741
G1 X-25.341 Y-5.222 E18.12748
G1 X-25.706 Y-5.392 E18.1469
G1 X-26.07 Y-5.646 E18.16831
G1 X-26.35 Y-5.926 E18.1874
G1 X-26.606 Y-6.295 E18.20906
G1 X-26.774 Y-6.655 E18.22822
G1 X-26.888 Y-7.089 E18.24986
G1 X-26.924 Y-7.519 E18.27067
G1 X-26.882 Y-7.939 E18.29103
G1 X-26.774 Y-8.341 E18.3111
G1 X-26.589 Y-8.73 E18.33188
G1 X-26.35 Y-9.07 E18.35192
G1 X-26.07 Y-9.35 E18.37102
G1 X-25.716 Y-9.598 E18.39186
G1 X-25.341 Y-9.774 E18.41184
G1 X-24.907 Y-9.888 E18.43348
G1 X-24.481 Y-9.924 E18.4541
G1 X-24.057 Y-9.882 E18.47465
G1 X-23.655 Y-9.774 E18.49472
G1 X-23.266 Y-9.589 E18.5155
G1 X-22.926 Y-9.35 E18.53554
G1 X-22.646 Y-9.07 E18.55464
G1 X-22.39 Y-8.701 E18.5763
G1 X-22.222 Y-8.341 E18.59546
G1 X-22.108 Y-7.907 E18.6171
G1 X-22.072 Y-7.481 E18.63771
G1 X-22.114 Y-7.057 E18.65826
G1 X-22.222 Y-6.655 E18.67834
G1 X-22.407 Y-6.266 E18.69911
G1 X-22.636 Y-5.937 E18.71844
G1 X-22.926 Y-5.646 E18.73826
G1 X-23.278 Y-5.399 E18.75899
G1 X-23.655 Y-5.222 E18.77908
G1 X-24.089 Y-5.108 E18.80072
G1 X-24.519 Y-5.072 E18.82153
M204 S5000
M205 X20 Y20
G0 F3000 X-24.718 Y-5.091
G1 F4200 E14.82153
G1 F3000 Z0.5
G0 X9.276 Y-.128 Z0.5
M204 S3000
M205 X10 Y10
G1 F3000 Z0.2
G1 F4200 E18.86311
G1 F3000 X21.267 Y-.129 E19.4414
G1 X21.465 Y-.501 E19.46172
G1 X21.779 Y-.716 E19.48008
G1 X22.001 Y-.776 E19.49117
G1 X26.487 Y-.776 E19.70751
G1 X26.977 Y-.818 E19.73123
G1 X27.423 Y-.937 E19.75349
G1 X27.859 Y-1.142 E19.77673
G1 X28.246 Y-1.414 E19.79954
G1 X28.581 Y-1.749 E19.82239
G1 X28.854 Y-2.141 E19.84543
G1 X29.059 Y-2.578 E19.86871
G1 X29.178 Y-3.02 E19.89078
G1 X29.224 Y-3.514 E19.91471
G1 X29.22 Y-11.495 E20.29961
G1 X29.178 Y-11.977 E20.32294
G1 X29.059 Y-12.423 E20.34521
G1 X28.854 Y-12.859 E20.36844
G1 X28.582 Y-13.246 E20.39125
G1 X28.246 Y-13.582 E20.41417
G1 X27.859 Y-13.854 E20.43698
G1 X27.423 Y-14.059 E20.46022
G1 X26.976 Y-14.178 E20.48253
G1 X26.486 Y-14.224 E20.50626
G1 X-26.488 Y-14.22 E23.06105
G1 X-26.92 Y-14.185 E23.08195
G1 X-27.338 Y-14.085 E23.10268
G1 X-27.741 Y-13.921 E23.12366
G1 X-28.101 Y-13.698 E23.14409
G1 X-28.422 Y-13.422 E23.1645
G1 X-28.698 Y-13.101 E23.18492
G1 X-28.921 Y-12.74 E23.20538
G1 X-29.085 Y-12.345 E23.22601
G1 X-29.189 Y-11.916 E23.2473
G1 X-29.224 Y-11.488 E23.26801
G1 X-29.22 Y-3.505 E23.65301
G1 X-29.178 Y-3.019 E23.67653
G1 X-29.059 Y-2.578 E23.69856
G1 X-28.854 Y-2.141 E23.72184
G1 X-28.581 Y-1.749 E23.74488
G1 X-28.246 Y-1.414 E23.76773
G1 X-27.859 Y-1.142 E23.79054
G1 X-27.423 Y-.937 E23.81377
G1 X-26.977 Y-.818 E23.83604
G1 X-26.487 Y-.776 E23.85975
G1 X-22.001 Y-.776 E24.0761
G1 X-21.561 Y-.591 E24.09912
G1 X-21.299 Y-.246 E24.12001
G1 X-21.262 Y-.128 E24.12598
G1 X-9.276 Y-.128 E24.70403
G1 X-9.276 Y-3.514 E24.86732
G1 X-9.222 Y-4.088 E24.89513
G1 X-9.081 Y-4.616 E24.92149
G1 X-8.846 Y-5.121 E24.94835
G1 X-8.498 Y-5.618 E24.97761
G1 X-8.118 Y-5.998 E25.00353
G1 X-7.621 Y-6.346 E25.03279
G1 X-7.133 Y-6.574 E25.05876
G1 X-6.553 Y-6.732 E25.08775
G1 X-6.013 Y-6.776 E25.11388
G1 X6.014 Y-6.776 E25.69391
G1 X6.588 Y-6.722 E25.72172
G1 X7.133 Y-6.574 E25.74895
G1 X7.621 Y-6.346 E25.77493
G1 X8.118 Y-5.998 E25.80419
G1 X8.498 Y-5.618 E25.83011
G1 X8.846 Y-5.121 E25.85937
G1 X9.081 Y-4.615 E25.88627
G1 X9.232 Y-4.053 E25.91434
G1 X9.276 Y-3.513 E25.94047
G1 X9.276 Y-.128 E26.10372
M204 S5000
M205 X20 Y20
G0 X9.476 Y-.128
G1 F4200 E22.10372
G1 F3000 Z0.5
G0 X24.481 Y-5.072 Z0.5
M204 S3000
M205 X10 Y10
G1 F3000 Z0.2
G1 F4200 E26.14529
G1 F1800 X24.057 Y-5.114 E26.16584
G1 X23.655 Y-5.222 E26.18592
G1 X23.278 Y-5.399 E26.206
G1 X22.937 Y-5.636 E26.22603
G1 X22.63 Y-5.944 E26.247
G1 X22.39 Y-6.295 E26.26751
G1 X22.222 Y-6.655 E26.28667
G1 X22.108 Y-7.089 E26.30831
G1 X22.072 Y-7.481 E26.32729
G1 X22.114 Y-7.939 E26.34947
G1 X22.222 Y-8.341 E26.36955
G1 X22.407 Y-8.73 E26.39032
G1 X22.646 Y-9.07 E26.41036
G1 X22.926 Y-9.35 E26.42946
G1 X23.295 Y-9.606 E26.45112
G1 X23.655 Y-9.774 E26.47028
G1 X24.089 Y-9.888 E26.49192
G1 X24.519 Y-9.924 E26.51273
G1 X24.939 Y-9.882 E26.53309
G1 X25.341 Y-9.774 E26.55316
G1 X25.719 Y-9.596 E26.57331
G1 X26.07 Y-9.35 E26.59398
G1 X26.35 Y-9.07 E26.61308
G1 X26.606 Y-8.701 E26.63474
G1 X26.774 Y-8.341 E26.6539
G1 X26.888 Y-7.907 E26.67554
G1 X26.924 Y-7.519 E26.69433
G1 X26.882 Y-7.057 E26.7167
G1 X26.774 Y-6.655 E26.73678
G1 X26.589 Y-6.266 E26.75755
G1 X26.35 Y-5.926 E26.7776
G1 X26.07 Y-5.646 E26.79669
G1 X25.706 Y-5.392 E26.8181
G1 X25.341 Y-5.222 E26.83752
G1 X24.907 Y-5.108 E26.85916
G1 X24.481 Y-5.072 E26.87978
M204 S5000
M205 X20 Y20
G0 F3000 X24.282 Y-5.091
G1 F4200 E22.87978
G1 F3000 Z0.5
G0 X-16.632 Y-11.612 Z0.5
M204 S3000
;TYPE:SKIN
G1 F3000 Z0.2
G1 F4200 E26.92135
G1 F1800 X-18.364 Y-11.612 E27.00822
G1 X-18.364 Y-13.108 E27.08326
G1 X-16.632 Y-13.108 E27.17013
G1 X-16.632 Y-11.612 E27.24516
M204 S5000
G1 F4200 E23.24516
G1 F3000 Z0.5
G0 X18.364 Y-11.612 Z0.5
M204 S3000
G1 F3000 Z0.2
G1 F4200 E27.28674
G1 F1800 X16.632 Y-11.612 E27.37361
G1 X16.632 Y-13.108 E27.44864
G1 X18.364 Y-13.108 E27.53551
G1 X18.364 Y-11.612 E27.61055
M204 S5000
G0 F3000 X18.164 Y-12.383
M204 S3000
G1 X17.639 Y-12.908 E27.64778
M204 S5000
G0 X17.074 Y-12.908
M204 S3000
G1 X18.164 Y-11.817 E27.72514
M204 S5000
G0 X17.604 Y-11.812
M204 S3000
G1 X16.832 Y-12.584 E27.77989
M204 S5000
G0 X16.832 Y-12.018
M204 S3000
G1 X17.038 Y-11.812 E27.79451
M204 S5000
G1 F4200 E23.79451
G1 F3000 Z0.5
G0 X-16.832 Y-12.306 Z0.5
M204 S3000
G1 F3000 Z0.2
G1 F4200 E27.83608
G1 F3000 X-17.433 Y-12.908 E27.87875
M204 S5000
G0 X-17.999 Y-12.908
M204 S3000
G1 X-16.903 Y-11.812 E27.95649
M204 S5000
G0 X-17.468 Y-11.812
M204 S3000
G1 X-18.164 Y-12.507 E28.00582
M204 S5000
G0 X-18.164 Y-11.942
M204 S3000
G1 X-18.034 Y-11.812 E28.01504
M204 S5000
G1 F4200 E24.01504
G1 F3000 Z0.5
G0 X16.41 Y-11.332 Z0.5
M204 S3000
G1 F3000 Z0.2
G1 F4200 E28.05662
G1 F3000 X16.5 Y-11.3 E28.06141
G1 X18.522 Y-11.305 E28.16282
G1 X18.642 Y-11.387 E28.17011
G1 X18.675 Y-11.473 E28.17473
G1 X18.676 Y-13.108 E28.25674
G1 X26.43 Y-13.111 E28.64565
